svgs/solid/hammer-war.svg

<svg xmlns="http://www.w3.org/2000/svg" viewBox="0 0 384 512"><!--! Font Awesome Pro 6.0.0-alpha3 by @fontawesome - https://fontawesome.com License - https://fontawesome.com/license (Commercial License) --><path d="M346.8 32.5l-122.8 20.4V16c0-8.875-7.125-16-16-16h-32c-8.875 0-16 7.125-16 16v36.9L37.25 32.5C17.75 29.25 .0001 44.25 .0001 64v192c0 19.75 17.75 34.75 37.25 31.5l154.8-25.75l154.8 25.75C366.3 290.8 384 275.8 384 256V64C384 44.25 366.3 29.25 346.8 32.5zM160 299.5L160 496c0 8.875 7.125 16 16 16h32c8.875 0 16-7.125 16-16L224 299.5l-32-5.25L160 299.5z"/></svg>

<svg xmlns="http://www.w3.org/2000/svg" viewBox="0 0 384 512"><!-- Font Awesome Pro 6.0.0-alpha2 by @fontawesome - https://fontawesome.com License - https://fontawesome.com/license (Commercial License) --><path d="M346.75 32.5L224 52.875V16C224 7.125 216.875 0 208 0H176C167.125 0 160 7.125 160 16V52.875L37.25 32.5C17.75 29.25 0 44.25 0 64V256C0 275.75 17.75 290.75 37.25 287.5L192 261.75L346.75 287.5C366.25 290.75 384 275.75 384 256V64C384 44.25 366.25 29.25 346.75 32.5ZM160 299.5V496C160 504.875 167.125 512 176 512H208C216.875 512 224 504.875 224 496V299.5L192 294.25L160 299.5Z"/></svg>
